X:1
T:Alameda, CMD
T:Alameda, CMD
T:Solomon W. Straub, 1893
T:Public Domain Courtesy of the Cyber Hymnal™
C:Solomon W. Straub, 1893
Z:Public Domain
Z:Courtesy of the Cyber Hymnal™
%%score ( 1 2 ) ( 3 4 )
L:1/8
Q:1/4=105
M:4/4
K:G
V:1 treble 
V:2 treble 
V:3 bass 
V:4 bass 
V:1
 [DB]2 [DB]>[^C^A] [DB]2 [=C=A]2 | [EG]3 [CE] [B,D]2 [B,D]2 | B,2 [B,D]2 [B,G]2 [DB]2 | [DA]6 z2 | %4
 [DB]2 [DB]>[^C^A] [DB]2 [=C=A]2 | [EG]3 [CE] [B,D]2 [B,D]2 | [B,D]2 [DG]2 [DF]2 [CA]2 | %7
 [B,G]6 z2 | [FA]2 [FA]>[FA] [Fd]2 [FA]2 | [FA]3 [^E^G] [FA]2 [FA]2 | [E^c]3 [Ec] [GB]2 [GA]2 | %11
 [Fd]6 z2 | [GB]2 [GB]>[G^A] [DB]2 [C=A]2 | [EG]3 [CE] [B,D]2 [B,D]2 | [B,D] [DG]3 [DF] [CA]3 | %15
 [B,G]6 z2 |] %16
V:2
 x8 | x8 | B,2 x6 | x8 | x8 | x8 | x8 | x8 | x8 | x8 | x8 | x8 | x8 | x8 | x8 | x8 |] %16
V:3
 G,2 G,>G, G,2 G,2 | [C,G,]3 [C,G,] [G,,G,]2 [G,,G,]2 | [G,,G,]2 [B,,G,]2 [D,G,]2 G,2 | %3
 [D,F,]6 z2 | G,2 G,>G, G,2 G,2 | [C,G,]3 [C,G,] [G,,G,]2 [G,,G,]2 | %6
 [G,,G,]2 [B,,G,]2 [D,A,]2 [D,F,]2 | [G,,G,]6 z2 | [D,D]2 [D,D]>[D,D] [D,D]2 [D,D]2 | %9
 [D,D]3 [D,D] [D,D]2 [D,A,]2 | A,3 A, A,2 A,2 | [D,A,]6 z2 | [G,D]2 [G,D]>[G,^C] [G,D]2 G,2 | %13
 [C,G,]3 [C,G,] [G,,G,]2 [G,,G,]2 | [G,,G,] [B,,G,]3 [D,A,] [D,F,]3 | [G,,G,]6 z2 |] %16
V:4
 G,2 G,>G, G,2 G,2 | x8 | x6 G,2 | x8 | G,2 G,>G, G,2 G,2 | x8 | x8 | x8 | x8 | x8 | %10
 A,3 A, A,2 A,2 | x8 | x6 G,2 | x8 | x8 | x8 |] %16

